images/logistic-icon.svg

<svg width="80" height="55" viewBox="0 0 80 55" fill="none" xmlns="http://www.w3.org/2000/svg">
<path d="M20.1377 38.093C15.5422 38.093 11.801 41.8343 11.801 46.4298C11.801 51.0252 15.5422 54.7665 20.1377 54.7665C24.7332 54.7744 28.4744 51.0332 28.4744 46.4298C28.4744 41.8264 24.7332 38.093 20.1377 38.093ZM20.1377 52.2354C16.9343 52.2354 14.332 49.6331 14.332 46.4298C14.332 43.2264 16.9343 40.6241 20.1377 40.6241C23.3411 40.6241 25.9434 43.2264 25.9434 46.4298C25.9434 49.6331 23.3411 52.2354 20.1377 52.2354Z" fill="url(#paint0_linear)"/>
<path d="M20.1379 42.9495C18.2159 42.9495 16.6577 44.5077 16.6577 46.4297C16.6577 48.3517 18.2159 49.9099 20.1379 49.9099C22.06 49.9099 23.6182 48.3517 23.6182 46.4297C23.6182 44.5077 22.06 42.9495 20.1379 42.9495Z" fill="url(#paint1_linear)"/>
<path d="M62.7707 38.093C58.1752 38.093 54.434 41.8343 54.434 46.4298C54.434 51.0252 58.1752 54.7665 62.7707 54.7665C67.3662 54.7665 71.1074 51.0252 71.1074 46.4298C71.1074 41.8343 67.3662 38.093 62.7707 38.093ZM62.7707 52.2354C59.5673 52.2354 56.965 49.6331 56.965 46.4298C56.965 43.2264 59.5673 40.6241 62.7707 40.6241C65.9741 40.6241 68.5764 43.2264 68.5764 46.4298C68.5764 49.6331 65.9662 52.2354 62.7707 52.2354Z" fill="url(#paint2_linear)"/>
<path d="M62.7706 42.9495C60.8486 42.9495 59.2904 44.5077 59.2904 46.4297C59.2904 48.3517 60.8486 49.9099 62.7706 49.9099C64.6927 49.9099 66.2509 48.3517 66.2509 46.4297C66.2509 44.5077 64.6927 42.9495 62.7706 42.9495Z" fill="url(#paint3_linear)"/>
<path d="M78.6769 21.4511L71.6849 18.5246C70.7911 16.9347 67.4057 11.0579 64.7481 8.7483C64.5187 8.55056 64.2261 8.43982 63.9176 8.43982H53.5402V1.50309C53.5402 0.807041 52.9707 0.237549 52.2746 0.237549H1.26554C0.569492 0.237549 0 0.807041 0 1.50309V32.4376C0 33.1336 0.569492 33.7031 1.26554 33.7031H3.46441V42.9495C3.46441 43.6455 4.0339 44.215 4.72995 44.215H10.3141C10.852 44.215 11.3266 43.8749 11.5085 43.3766C12.8057 39.7303 16.2701 37.2862 20.1379 37.2862C23.9978 37.2862 27.4622 39.7382 28.7594 43.3766C28.9413 43.8828 29.4159 44.215 29.9537 44.215H52.947C53.4848 44.215 53.9594 43.8749 54.1413 43.3766C55.4385 39.7303 58.9029 37.2862 62.7707 37.2862C66.6385 37.2862 70.095 39.7382 71.4001 43.3766C71.582 43.8828 72.0566 44.215 72.5945 44.215H78.1945C78.8905 44.215 79.46 43.6455 79.46 42.9495V32.58V22.6218C79.4521 22.1076 79.1436 21.6489 78.6769 21.4511ZM53.5639 10.9709H63.4193C66.0769 13.5573 69.6442 20.059 69.6758 20.1302C69.8103 20.3833 70.0317 20.5811 70.3007 20.6918L76.921 23.4681V31.3223H53.5639V10.9709ZM2.53108 6.47033H5.73447V27.5732H2.53108V6.47033ZM7.36385 6.47033H10.765V27.5732H7.36385V6.47033ZM12.3944 6.47033H15.7955V27.5732H12.3944V6.47033ZM17.4328 6.47033H20.8339V27.5732H17.4328V6.47033ZM22.4633 6.47033H25.8644V27.5732H22.4633V6.47033ZM27.4938 6.47033H30.895V27.5732H27.4938V6.47033ZM32.5323 6.47033H35.9334V27.5732H32.5323V6.47033ZM37.5628 6.47033H40.9639V27.5732H37.5628V6.47033ZM42.5933 6.47033H45.9944V27.5732H42.5933V6.47033ZM47.6317 6.47033H51.0091V27.5732H47.6317V6.47033ZM2.53108 2.76863H51.0091V4.65902H2.53108V2.76863ZM2.53108 31.1721V29.3845H51.0091V31.1721H2.53108ZM76.921 41.6839H73.4487C71.582 37.4998 67.3978 34.7472 62.7707 34.7472C58.1436 34.7472 53.9594 37.4998 52.0927 41.6839H30.8159C28.9492 37.4998 24.765 34.7472 20.1379 34.7472C15.5108 34.7472 11.3266 37.4998 9.4599 41.6839H6.0034V33.8455H52.2984H76.921V41.6839Z" fill="url(#paint4_linear)"/>
<path d="M61.7742 13.1538H55.0984V21.0634H67.4137L67.3504 20.9527C65.9742 18.6352 63.5696 15.0917 61.7742 13.1538Z" fill="url(#paint5_linear)"/>
<path d="M60.9041 24.0693H56.8939V25.5247H60.9041V24.0693Z" fill="url(#paint6_linear)"/>
<defs>
<linearGradient id="paint0_linear" x1="20.1377" y1="38.093" x2="20.1377" y2="54.7665" gradientUnits="userSpaceOnUse">
<stop stop-color="#AD844C"/>
<stop offset="0.640625" stop-color="#BDA180"/>
<stop offset="1" stop-color="#AD844C"/>
</linearGradient>
<linearGradient id="paint1_linear" x1="20.1379" y1="42.9495" x2="20.1379" y2="49.9099" gradientUnits="userSpaceOnUse">
<stop stop-color="#AD844C"/>
<stop offset="0.640625" stop-color="#BDA180"/>
<stop offset="1" stop-color="#AD844C"/>
</linearGradient>
<linearGradient id="paint2_linear" x1="62.7707" y1="38.093" x2="62.7707" y2="54.7665" gradientUnits="userSpaceOnUse">
<stop stop-color="#AD844C"/>
<stop offset="0.640625" stop-color="#BDA180"/>
<stop offset="1" stop-color="#AD844C"/>
</linearGradient>
<linearGradient id="paint3_linear" x1="62.7706" y1="42.9495" x2="62.7706" y2="49.9099" gradientUnits="userSpaceOnUse">
<stop stop-color="#AD844C"/>
<stop offset="0.640625" stop-color="#BDA180"/>
<stop offset="1" stop-color="#AD844C"/>
</linearGradient>
<linearGradient id="paint4_linear" x1="39.73" y1="0.237548" x2="21" y2="50.8844" gradientUnits="userSpaceOnUse">
<stop stop-color="#AD844C"/>
<stop offset="0.640625" stop-color="#BDA180"/>
<stop offset="1" stop-color="#AD844C"/>
</linearGradient>
<linearGradient id="paint5_linear" x1="61.2561" y1="13.1538" x2="61.2561" y2="21.0634" gradientUnits="userSpaceOnUse">
<stop stop-color="#AD844C"/>
<stop offset="0.640625" stop-color="#BDA180"/>
<stop offset="1" stop-color="#AD844C"/>
</linearGradient>
<linearGradient id="paint6_linear" x1="58.899" y1="24.0693" x2="58.899" y2="25.5247" gradientUnits="userSpaceOnUse">
<stop stop-color="#AD844C"/>
<stop offset="0.640625" stop-color="#BDA180"/>
<stop offset="1" stop-color="#AD844C"/>
</linearGradient>
</defs>
</svg>

<svg width="80" height="55" fill="none" xmlns="http://www.w3.org/2000/svg"><path d="M20.138 38.093c-4.596 0-8.337 3.741-8.337 8.337 0 4.595 3.741 8.337 8.337 8.337 4.595.007 8.336-3.734 8.336-8.337 0-4.604-3.74-8.337-8.336-8.337zm0 14.142a5.81 5.81 0 01-5.806-5.805 5.81 5.81 0 015.806-5.806 5.81 5.81 0 015.805 5.806 5.81 5.81 0 01-5.805 5.805z" fill="url(#paint0_linear)"/><path d="M20.138 42.95a3.48 3.48 0 100 6.96 3.48 3.48 0 000-6.96z" fill="url(#paint1_linear)"/><path d="M62.77 38.093c-4.595 0-8.336 3.741-8.336 8.337 0 4.595 3.741 8.337 8.337 8.337 4.595 0 8.336-3.742 8.336-8.337 0-4.596-3.74-8.337-8.336-8.337zm0 14.142a5.81 5.81 0 01-5.805-5.805 5.81 5.81 0 015.806-5.806 5.81 5.81 0 015.805 5.806 5.815 5.815 0 01-5.805 5.805z" fill="url(#paint2_linear)"/><path d="M62.77 42.95a3.48 3.48 0 100 6.96 3.48 3.48 0 000-6.96z" fill="url(#paint3_linear)"/><path d="M78.677 21.451l-6.992-2.926c-.894-1.59-4.28-7.467-6.937-9.777a1.269 1.269 0 00-.83-.308H53.54V1.503A1.27 1.27 0 0052.275.238H1.265A1.27 1.27 0 000 1.503v30.935c0 .696.57 1.265 1.266 1.265h2.198v9.246c0 .697.57 1.266 1.266 1.266h5.584c.538 0 1.013-.34 1.194-.838a9.172 9.172 0 018.63-6.09 9.18 9.18 0 018.621 6.09c.182.506.657.838 1.195.838h22.993c.538 0 1.012-.34 1.194-.838a9.172 9.172 0 018.63-6.09c3.867 0 7.324 2.451 8.63 6.09.181.506.656.838 1.194.838h5.6a1.27 1.27 0 001.265-1.266V22.623a1.291 1.291 0 00-.783-1.17zm-25.113-10.48h9.855c2.658 2.586 6.225 9.088 6.257 9.16.134.252.356.45.625.56l6.62 2.777v7.854H53.564V10.971zM2.53 6.47h3.203v21.102H2.531V6.47zm4.833 0h3.401v21.102h-3.4V6.47zm5.03 0h3.402v21.102h-3.402V6.47zm5.039 0h3.4v21.102h-3.4V6.47zm5.03 0h3.401v21.102h-3.4V6.47zm5.03 0h3.402v21.102h-3.401V6.47zm5.04 0h3.4v21.102h-3.4V6.47zm5.03 0h3.4v21.102h-3.4V6.47zm5.03 0h3.401v21.102h-3.4V6.47zm5.039 0h3.377v21.102h-3.377V6.47zm-45.1-3.702h48.477v1.89H2.531v-1.89zm0 28.403v-1.788h48.477v1.788H2.531zM76.92 41.684h-3.472c-1.867-4.184-6.051-6.937-10.678-6.937a11.722 11.722 0 00-10.678 6.937H30.816c-1.867-4.184-6.051-6.937-10.678-6.937-4.627 0-8.811 2.753-10.678 6.937H6.003v-7.838h70.918v7.838z" fill="url(#paint4_linear)"/><path d="M61.774 13.154h-6.676v7.91h12.316l-.064-.111c-1.376-2.318-3.78-5.861-5.576-7.8z" fill="url(#paint5_linear)"/><path d="M60.904 24.07h-4.01v1.455h4.01v-1.456z" fill="url(#paint6_linear)"/><defs><linearGradient id="paint0_linear" x1="20.138" y1="38.093" x2="20.138" y2="54.767" gradientUnits="userSpaceOnUse"><stop stop-color="#AD844C"/><stop offset=".641" stop-color="#BDA180"/><stop offset="1" stop-color="#AD844C"/></linearGradient><linearGradient id="paint1_linear" x1="20.138" y1="42.95" x2="20.138" y2="49.91" gradientUnits="userSpaceOnUse"><stop stop-color="#AD844C"/><stop offset=".641" stop-color="#BDA180"/><stop offset="1" stop-color="#AD844C"/></linearGradient><linearGradient id="paint2_linear" x1="62.771" y1="38.093" x2="62.771" y2="54.767" gradientUnits="userSpaceOnUse"><stop stop-color="#AD844C"/><stop offset=".641" stop-color="#BDA180"/><stop offset="1" stop-color="#AD844C"/></linearGradient><linearGradient id="paint3_linear" x1="62.771" y1="42.95" x2="62.771" y2="49.91" gradientUnits="userSpaceOnUse"><stop stop-color="#AD844C"/><stop offset=".641" stop-color="#BDA180"/><stop offset="1" stop-color="#AD844C"/></linearGradient><linearGradient id="paint4_linear" x1="39.73" y1=".238" x2="21" y2="50.884" gradientUnits="userSpaceOnUse"><stop stop-color="#AD844C"/><stop offset=".641" stop-color="#BDA180"/><stop offset="1" stop-color="#AD844C"/></linearGradient><linearGradient id="paint5_linear" x1="61.256" y1="13.154" x2="61.256" y2="21.063" gradientUnits="userSpaceOnUse"><stop stop-color="#AD844C"/><stop offset=".641" stop-color="#BDA180"/><stop offset="1" stop-color="#AD844C"/></linearGradient><linearGradient id="paint6_linear" x1="58.899" y1="24.069" x2="58.899" y2="25.525" gradientUnits="userSpaceOnUse"><stop stop-color="#AD844C"/><stop offset=".641" stop-color="#BDA180"/><stop offset="1" stop-color="#AD844C"/></linearGradient></defs></svg>
